!!!OTL: ES SANGEN DREI ENGEL
!!!ARE: Europa, Mitteleuropa, Deutschland, Westfalen
!!!SCT: E2031A
!!!YEM: Copyright 1995, estate of Helmut Schaffrath.
**kern
*ICvox
*Ivox
*M3/4
*k[f#]
*G:
{4g
=1
4.e
8f#
8g
8e
=2
4d
4B}
{8g
8g
=3
4e
4f#
4g
=4
2a}
{4b
=5
4cc
4a
8dd
8dd
=6
4g
4g}
{4b
=7
4a
4g
4f#
=8
2g}
==
!!!AGN: geistlich, Wallfahrts - Lied
!!!ONB: ESAC (Essen Associative Code) Database: ERK3
!!!AMT: simple triple
!!!AIN: vox
!!!EED: Helmut Schaffrath
!!!EEV: 1.0
*-
